vendor/shopware/storefront/Resources/app/storefront/dist/assets/icon/default/money-card.svg

<svg xmlns="http://www.w3.org/2000/svg" width="24" height="24" viewBox="0 0 24 24">
  <path fill="#758CA3" fill-rule="evenodd" d="M17,14 C16.4477153,14 16,13.5522847 16,13 C16,12.4477153 16.4477153,12 17,12 L19,12 C19.5522847,12 20,12.4477153 20,13 C20,13.5522847 19.5522847,14 19,14 L17,14 Z M8,14 C7.44771525,14 7,13.5522847 7,13 C7,12.4477153 7.44771525,12 8,12 L14,12 C14.5522847,12 15,12.4477153 15,13 C15,13.5522847 14.5522847,14 14,14 L8,14 Z M22,8 L22,6 C22,5.44771525 21.5522847,5 21,5 L3,5 C2.44771525,5 2,5.44771525 2,6 L2,8 L22,8 Z M22,10 L2,10 L2,18 C2,18.5522847 2.44771525,19 3,19 L21,19 C21.5522847,19 22,18.5522847 22,18 L22,10 Z M3,3 L21,3 C22.6568542,3 24,4.34314575 24,6 L24,18 C24,19.6568542 22.6568542,21 21,21 L3,21 C1.34314575,21 2.02906125e-16,19.6568542 0,18 L0,6 C-2.02906125e-16,4.34314575 1.34314575,3 3,3 Z"/>
</svg>

<svg xmlns="http://www.w3.org/2000/svg" width="24" height="24" viewBox="0 0 24 24"><path fill="#758CA3" fill-rule="evenodd" d="M17 14c-.5523 0-1-.4477-1-1s.4477-1 1-1h2c.5523 0 1 .4477 1 1s-.4477 1-1 1h-2zm-9 0c-.5523 0-1-.4477-1-1s.4477-1 1-1h6c.5523 0 1 .4477 1 1s-.4477 1-1 1H8zm14-6V6c0-.5523-.4477-1-1-1H3c-.5523 0-1 .4477-1 1v2h20zm0 2H2v8c0 .5523.4477 1 1 1h18c.5523 0 1-.4477 1-1v-8zM3 3h18c1.6569 0 3 1.3431 3 3v12c0 1.6569-1.3431 3-3 3H3c-1.6569 0-3-1.3431-3-3V6c0-1.6569 1.3431-3 3-3z"/></svg>
